X: 1
T: Green Grow The Rushes
R: barndance
M: 4/4
L: 1/8
K: Gmaj
G2GA BGG2|ABcd eAAB|c2ec B2dB|1 AcBA GEDE:|2 AcBA GED2|
|:g2ga ged2|eaab agef|g2ga gedB|1 AcBA GED2:|2 AcBA GEDE||


Tune 1936	Setting 21314

